img/hills_bg.svg

<svg height="141" viewBox="0 0 1370 141" width="1370" xmlns="http://www.w3.org/2000/svg"><path d="m1347.87941 73.9347959c-17.125-2.5571928-25.33095-4.0196195-37.46137-5.8455989s-32.82384-4.3841991-41.74188-5.4799922c-8.92004-1.095793-35.32012-3.2873791-41.02879-5.1143855-5.70666-1.8259794-30.32454-4.3831721-34.96308-5.1143855-4.63754-.7312133-9.63212-1.4603727-15.69683-3.2873791-6.06571-1.8270064-14.98475-2.5561657-20.69342-3.2873791-5.70867-.7312133-19.26525-6.2081246-24.61687-7.6705513-5.35163-1.4613997-6.42175-.3625257-11.77338-1.092712-5.35162-.7301864-5.35162-.7240245-8.92004-1.8198175-3.56742-1.0947661-11.77237.3789574-14.62771.3789574-2.85433 0-11.05929-2.1648844-14.27067-2.5304911-3.21137-.3656067-4.63854-1.0434168-6.77879-1.7736032-2.14125-.7312133-4.2825-1.3545932-5.70867-1.7212269-1.42616-.3666337-8.91803-.5176005-8.91803-.5176005s-4.10298 0-7.09071 0l.08124-2.7153484c.03209-1.0927121.01304-12.3946825.01304-12.3946825.06419-2.1843971.45332-3.2658124.45332-3.2658124 2.17636-1.39053773 6.59626-6.35601041 6.59626-6.35601041 1.84439-2.12996697 1.88751-3.58725874 1.88751-3.58725874.02106-.7281324-.33397-.73951805-.33397-.73951805-.35504-.01120802-1.10022 1.05891039-1.10022 1.05891039-.70004-.38614637-.7552 1.43367112-.7552 1.43367112-.3771.71786254-2.20945 2.48324983-2.20945 2.48324983-2.9436 3.18878855-5.79893 3.46504753-5.79893 3.46504753-.35504-.01232382.01103-.36457969.01103-.36457969.7552-1.43367112.08725-2.91355656.08725-2.91355656-1.01295-1.853708-3.19031-.46317026-3.19031-.46317026-1.08918.69526888-.10832 3.64066197-.10832 3.64066197-.72311.34198602-1.42215-.04313337-1.42215-.04313337l-3.13716-2.2860687c-2.79015-1.90916519-4.15914-3.77519701-4.15914-3.77519701-.31292-1.46756162-.65592-1.84241116-.65592-1.84241116-.34601-.37587653-1.07815.3296622-1.07815.3296622-.36707.35430983-.04412 1.45729177-.04412 1.45729177.33497.73942923 2.04798 2.9792836 2.04798 2.9792836 2.0911 1.52301882 5.88317 5.65252564 5.88317 5.65252564 1.03502 1.1255756.79633 9.1370859.79633 9.1370859l-.58571 9.2223257c-2.12621.0451873-4.15614.0482683-5.09588-.1448049-1.78321-.3645797-4.63754-.0297826-6.77779-1.1266026-2.14125-1.095793-2.85534 0-4.99458 0-2.14125 0-4.99459 1.0957931-6.77879 2.1915861-1.78321 1.095793-4.63855 4.3841991-8.92005 4.7487788s-11.41633 2.5582198-13.55758 3.2884061c-2.141255.7301864-19.265252 3.2884061-23.190713 3.2884061-3.924458 0-10.345205 4.0196195-10.345205 4.0196195s-24.973917 6.2101785-26.401084 6.2101785c-1.427166 0-31.395666 5.8455989-33.892957 6.2101786s-29.969502 6.5757852-31.039627 6.2112055c-1.069121-.3645797-10.70325.7301864-10.70325.7301864s-12.129414-4.3841992-13.199539-4.3841992c-1.070124 0-12.48746-.7301863-14.627709-1.095793-2.141251-.3645797-6.778792-1.4613997-8.563001-2.5571928-1.783206-1.095793-11.05929-4.0185924-12.843499-4.7498058-1.78421-.7301864-14.627709-3.6529858-18.196128-4.7498058-3.568418-1.09682-17.838082-6.9413919-19.979333-8.0371849-2.140249-1.0957931-7.492877-1.4603728-8.561999-1.8259794-1.070124-.3656067-3.568419 1.094766-5.708668 1.094766s-11.772372.3656067-13.557584 0c-1.783206-.3656067-19.978331 1.0957931-24.972913-1.094766-4.994583-2.1926131-1.427167-1.8270064-5.707665-1.8270064-4.282504 0-4.638543.7301863-7.135835-.7312134-2.497291-1.4613997-3.210373-1.094766-4.994582-1.4603727-1.783207-.3645797-4.99358.7301864-6.064708 2.1915861-1.070124 1.4613997-2.854333 0-2.854333 0s-2.854334 1.095793-3.924459 2.9012327c-1.070124 1.8044127-3.568418.3871734-5.351625.0215667-1.783206-.3656067-7.848916 4.0185925-10.346208 5.1143855-2.496288 1.095793-14.627708 5.1154125-20.692416 6.6312424-6.064707 1.5158299-22.833667 5.7901417-26.401083 6.521355-3.567416.7312134-12.843499 1.4613997-16.768961 1.0957931-3.924458-.3645797-14.270666 4.7498058-18.552166 5.4799921-4.281501.7301864-19.979334 5.4799922-27.828251 7.4723432-7.848916 1.990297-40.314707 6.7760473-51.732042 7.5072606-11.417336.7312134-48.877709 5.8455989-56.370586 6.2101786-7.491874.3656067-30.324539 2.5582197-35.320124 2.1926131-4.994583-.3656067-8.919041 2.5571927-8.919041 2.5571927l-5.351626.3645797s-12.487459 1.095793-13.557584 1.4613997c-1.070124.3645797-13.914626.3645797-16.054875 0-2.141252-.3645797-16.411918-2.9227994-23.547753-4.0175655-7.134831-1.09682-22.833667-3.2884061-26.044041-3.6550397-3.211376-.3645797-41.384831-4.7487789-43.169041-5.1133586-1.784209-.3645796-35.676164-4.7487788-45.666332-6.5757852-9.989166-1.8259794-62.43429-6.9413919-66.002709-9.1340049-3.568419-2.1915861-3.568419-1.0957931-6.421749-1.8259794-2.853331-.7301864-5.707665-1.0957931-8.920044-2.9227995-3.210374-1.8259794-4.281501-1.8259794-6.42175-2.7554008-2.140249-.9273675-4.281501-1.6287983-6.777789-2.4308736-2.497292-.8020753-6.064707.0718889-7.848917 0-1.783206-.070862-8.205959-.6593244-11.416332 0-3.211376.6593244-1.784209-.6603514-2.854334 0-1.070124.6582974-4.281501-1.0249311-6.42175-2.1915861-2.141251-1.166655-3.568418 2.3107164-3.568418 2.3107164s-5.34962 1.4110774-6.420747 2.1422908c-1.070124.7301863-4.280498-1.098874-6.063704-2.2306116-1.78421-1.1317375-2.494283-.337878-4.6345317-.0071889-2.1412518.3296622-5.3466105.3882004-6.7727745-.0133508-1.4271669-.4005241-3.1642387 2.198775-5.3054905 1.7982508-2.1402489-.4025781-3.1973353-1.6164744-5.6946267-2.3487147-2.4982942-.7301864-4.9775329 2.5910832-4.9775329 2.5910832s-55.2101977-1.6739856-75.90261347-2.0395923l-.17852123 88.3166056h1370v-64.1424047s-4.99458-.3656067-22.12059-2.9227994zm-298.51277-50.4366119c.02649-1.1013984.62238-1.446103.62238-1.446103.59673-.3447045.8533 1.1345232.8533 1.1345232.18042.7504829.16883 3.8300506.14318 5.7574978-.58762.0093163-1.26877.0320896-1.9855.055898z" fill="#090018"/></svg>

<svg xmlns="http://www.w3.org/2000/svg" width="1370" height="141" viewBox="0 0 1370 141">
  <path fill="#090018" d="M1347.87941,73.9347959 C1330.75441,71.3776031 1322.54846,69.9151764 1310.41804,68.089197 C1298.28762,66.2632176 1277.5942,63.7049979 1268.67616,62.6092048 C1259.75612,61.5134118 1233.35604,59.3218257 1227.64737,57.4948193 C1221.94071,55.6688399 1197.32283,53.1116472 1192.68429,52.3804338 C1188.04675,51.6492205 1183.05217,50.9200611 1176.98746,49.0930547 C1170.92175,47.2660483 1162.00271,46.536889 1156.29404,45.8056756 C1150.58537,45.0744623 1137.02879,39.597551 1131.67717,38.1351243 C1126.32554,36.6737246 1125.25542,37.7725986 1119.90379,37.0424123 C1114.55217,36.3122259 1114.55217,36.3183878 1110.98375,35.2225948 C1107.41633,34.1278287 1099.21138,35.6015522 1096.35604,35.6015522 C1093.50171,35.6015522 1085.29675,33.4366678 1082.08537,33.0710611 C1078.874,32.7054544 1077.44683,32.0276443 1075.30658,31.2974579 C1073.16533,30.5662446 1071.02408,29.9428647 1069.59791,29.576231 C1068.17175,29.2095973 1060.67988,29.0586305 1060.67988,29.0586305 C1060.67988,29.0586305 1056.5769,29.0586305 1053.58917,29.0586305 L1053.67041,26.3432821 C1053.7025,25.25057 1053.68345,13.9485996 1053.68345,13.9485996 C1053.74764,11.7642025 1054.13677,10.6827872 1054.13677,10.6827872 C1056.31313,9.29224947 1060.73303,4.32677679 1060.73303,4.32677679 C1062.57742,2.19680982 1062.62054,0.739518046 1062.62054,0.739518046 C1062.6416,0.0113856524 1062.28657,0 1062.28657,0 C1061.93153,-0.0112080185 1061.18635,1.05891039 1061.18635,1.05891039 C1060.48631,0.672764019 1060.43115,2.49258151 1060.43115,2.49258151 C1060.05405,3.21044405 1058.2217,4.97583134 1058.2217,4.97583134 C1055.2781,8.16461989 1052.42277,8.44087887 1052.42277,8.44087887 C1052.06773,8.42855505 1052.4338,8.07629918 1052.4338,8.07629918 C1053.189,6.64262806 1052.52105,5.16274262 1052.52105,5.16274262 C1051.5081,3.30903462 1049.33074,4.69957236 1049.33074,4.69957236 C1048.24156,5.39484124 1049.22242,8.34023433 1049.22242,8.34023433 C1048.49931,8.68222035 1047.80027,8.29710096 1047.80027,8.29710096 L1044.66311,6.01103226 C1041.87296,4.10186707 1040.50397,2.23583525 1040.50397,2.23583525 C1040.19105,0.768273628 1039.84805,0.393424088 1039.84805,0.393424088 C1039.50204,0.0175475627 1038.7699,0.723086286 1038.7699,0.723086286 C1038.40283,1.07739612 1038.72578,2.18037806 1038.72578,2.18037806 C1039.06075,2.91980729 1040.77376,5.15966166 1040.77376,5.15966166 C1042.86486,6.68268048 1046.65693,10.8121873 1046.65693,10.8121873 C1047.69195,11.9377629 1047.45326,19.9492732 1047.45326,19.9492732 L1046.86755,29.1715989 C1044.74134,29.2167862 1042.71141,29.2198672 1041.77167,29.026794 C1039.98846,28.6622143 1037.13413,28.9970114 1034.99388,27.9001914 C1032.85263,26.8043984 1032.13854,27.9001914 1029.9993,27.9001914 C1027.85805,27.9001914 1025.00471,28.9959845 1023.22051,30.0917775 C1021.4373,31.1875705 1018.58196,34.4759766 1014.30046,34.8405563 C1010.01896,35.205136 1002.88413,37.3987761 1000.74288,38.1289624 C998.601625,38.8591488 981.477628,41.4173685 977.552167,41.4173685 C973.627709,41.4173685 967.206962,45.436988 967.206962,45.436988 C967.206962,45.436988 942.233045,51.6471665 940.805878,51.6471665 C939.378712,51.6471665 909.410212,57.4927654 906.912921,57.8573451 C904.41563,58.2219248 876.943419,64.4331303 875.873294,64.0685506 C874.804173,63.7039709 865.170044,64.798737 865.170044,64.798737 C865.170044,64.798737 853.04063,60.4145378 851.970505,60.4145378 C850.900381,60.4145378 839.483045,59.6843515 837.342796,59.3187448 C835.201545,58.9541651 830.564004,57.8573451 828.779795,56.761552 C826.996589,55.665759 817.720505,52.7429596 815.936296,52.0117462 C814.152086,51.2815598 801.308587,48.3587604 797.740168,47.2619404 C794.17175,46.1651204 779.902086,40.3205485 777.760835,39.2247555 C775.620586,38.1289624 770.267958,37.7643827 769.198836,37.3987761 C768.128712,37.0331694 765.630417,38.4935421 763.490168,38.4935421 C761.349919,38.4935421 751.717796,38.8591488 749.932584,38.4935421 C748.149378,38.1279354 729.954253,39.5893352 724.959671,37.3987761 C719.965088,35.206163 723.532504,35.5717697 719.252006,35.5717697 C714.969502,35.5717697 714.613463,36.301956 712.116171,34.8405563 C709.61888,33.3791566 708.905798,33.7457903 707.121589,33.3801836 C705.338382,33.0156039 702.128009,34.11037 701.056881,35.5717697 C699.986757,37.0331694 698.202548,35.5717697 698.202548,35.5717697 C698.202548,35.5717697 695.348214,36.6675627 694.278089,38.4730024 C693.207965,40.2774151 690.709671,38.8601758 688.926464,38.4945691 C687.143258,38.1289624 681.077548,42.5131616 678.580256,43.6089546 C676.083968,44.7047476 663.952548,48.7243671 657.88784,50.240197 C651.823133,51.7560269 635.054173,56.0303387 631.486757,56.761552 C627.919341,57.4927654 618.643258,58.2229517 614.717796,57.8573451 C610.793338,57.4927654 600.44713,62.6071509 596.16563,63.3373372 C591.884129,64.0675236 576.186296,68.8173294 568.337379,70.8096804 C560.488463,72.7999774 528.022672,77.5857277 516.605337,78.316941 C505.188001,79.0481544 467.727628,84.1625399 460.234751,84.5271196 C452.742877,84.8927263 429.910212,87.0853393 424.914627,86.7197327 C419.920044,86.354126 415.995586,89.2769254 415.995586,89.2769254 L410.64396,89.6415051 C410.64396,89.6415051 398.156501,90.7372981 397.086376,91.1029048 C396.016252,91.4674845 383.17175,91.4674845 381.031501,91.1029048 C378.890249,90.7383251 364.619583,88.1801054 357.483748,87.0853393 C350.348917,85.9885193 334.650081,83.7969332 331.439707,83.4302996 C328.228331,83.0657199 290.054876,78.6815207 288.270666,78.316941 C286.486457,77.9523614 252.594502,73.5681622 242.604334,71.7411558 C232.615168,69.9151764 180.170044,64.7997639 176.601625,62.6071509 C173.033206,60.4155648 173.033206,61.5113578 170.179876,60.7811715 C167.326545,60.0509851 164.472211,59.6853784 161.259832,57.858372 C158.049458,56.0323926 156.978331,56.0323926 154.838082,55.1029712 C152.697833,54.1756037 150.556581,53.4741729 148.060293,52.6720976 C145.563001,51.8700223 141.995586,52.7439865 140.211376,52.6720976 C138.42817,52.6012356 132.005417,52.0127732 128.795044,52.6720976 C125.583668,53.331422 127.010835,52.0117462 125.94071,52.6720976 C124.870586,53.330395 121.659209,51.6471665 119.51896,50.4805115 C117.377709,49.3138565 115.950542,52.7912279 115.950542,52.7912279 C115.950542,52.7912279 110.600922,54.2023053 109.529795,54.9335187 C108.459671,55.663705 105.249297,53.8346447 103.466091,52.7029071 C101.681881,51.5711696 100.971808,52.3650291 98.8315593,52.6957182 C96.6903075,53.0253804 93.4849488,53.0839186 92.0587848,52.6823674 C90.6316179,52.2818433 88.8945461,54.8811424 86.7532943,54.4806182 C84.6130454,54.0780401 83.555959,52.8641438 81.0586676,52.1319035 C78.5603734,51.4017171 76.0811347,54.7229867 76.0811347,54.7229867 C76.0811347,54.7229867 20.870937,53.0490011 0.17852123,52.6833944 L0,141 L1370,141 L1370,76.8575953 C1370,76.8575953 1365.00542,76.4919886 1347.87941,73.9347959 Z M1049.36664,23.498184 C1049.39313,22.3967856 1049.98902,22.052081 1049.98902,22.052081 C1050.58575,21.7073765 1050.84232,23.1866042 1050.84232,23.1866042 C1051.02274,23.9370871 1051.01115,27.0166548 1050.9855,28.944102 C1050.39788,28.9534183 1049.71673,28.9761916 1049,29 L1049.36664,23.498184 Z"/>
</svg>
